src/resources/instagram-icon.svg

<svg fill="none" height="40" viewBox="0 0 40 40" width="40" xmlns="http://www.w3.org/2000/svg" xmlns:xlink="http://www.w3.org/1999/xlink"><linearGradient id="a" gradientUnits="userSpaceOnUse" x1="8.5" x2="35" y1="35.5" y2="8"><stop offset="0" stop-color="#eea054"/><stop offset=".502762" stop-color="#d64763"/><stop offset="1" stop-color="#b62a99"/></linearGradient><circle cx="20" cy="20" fill="url(#a)" r="20"/><path d="m26.5808 12h-12.1616c-1.373 0-2.4192 1.0462-2.4192 2.4192v12.1616c0 1.373 1.0462 2.4192 2.4192 2.4192h12.1616c1.373 0 2.4192-1.0462 2.4192-2.4192v-12.1616c0-1.373-1.0462-2.4192-2.4192-2.4192zm-6.0808 13.6c2.8115 0 5.1-2.2231 5.1-4.9038 0-.4577-.0654-.9808-.1962-1.3731h1.4385v6.9307c0 .327-.2615.6539-.6538.6539h-11.377c-.3269 0-.6538-.2615-.6538-.6539v-6.9961h1.5038c-.1307.4577-.1961.9154-.1961 1.3731-.0654 2.7461 2.2231 4.9692 5.0346 4.9692zm0-1.9615c-1.8308 0-3.2692-1.4385-3.2692-3.2039s1.4384-3.2038 3.2692-3.2038 3.2692 1.4384 3.2692 3.2038c0 1.8308-1.4384 3.2039-3.2692 3.2039zm6.2769-6.9962c0 .3923-.3269.7192-.7192.7192h-1.8308c-.3923 0-.7192-.3269-.7192-.7192v-1.7654c0-.3923.3269-.7192.7192-.7192h1.8308c.3923 0 .7192.3269.7192.7192z" fill="#fff"/></svg>

<svg width="40" height="40" viewBox="0 0 40 40" fill="none" xmlns="http://www.w3.org/2000/svg">
<circle cx="20" cy="20" r="20" fill="url(#paint0_linear_67_5360)"/>
<path d="M26.5808 12H14.4192C13.0462 12 12 13.0462 12 14.4192V26.5808C12 27.9538 13.0462 29 14.4192 29H26.5808C27.9538 29 29 27.9538 29 26.5808V14.4192C29 13.0462 27.9538 12 26.5808 12ZM20.5 25.6C23.3115 25.6 25.6 23.3769 25.6 20.6962C25.6 20.2385 25.5346 19.7154 25.4038 19.3231H26.8423V26.2538C26.8423 26.5808 26.5808 26.9077 26.1885 26.9077H14.8115C14.4846 26.9077 14.1577 26.6462 14.1577 26.2538V19.2577H15.6615C15.5308 19.7154 15.4654 20.1731 15.4654 20.6308C15.4 23.3769 17.6885 25.6 20.5 25.6ZM20.5 23.6385C18.6692 23.6385 17.2308 22.2 17.2308 20.4346C17.2308 18.6692 18.6692 17.2308 20.5 17.2308C22.3308 17.2308 23.7692 18.6692 23.7692 20.4346C23.7692 22.2654 22.3308 23.6385 20.5 23.6385ZM26.7769 16.6423C26.7769 17.0346 26.45 17.3615 26.0577 17.3615H24.2269C23.8346 17.3615 23.5077 17.0346 23.5077 16.6423V14.8769C23.5077 14.4846 23.8346 14.1577 24.2269 14.1577H26.0577C26.45 14.1577 26.7769 14.4846 26.7769 14.8769V16.6423Z" fill="white"/>
<defs>
<linearGradient id="paint0_linear_67_5360" x1="8.5" y1="35.5" x2="35" y2="8" gradientUnits="userSpaceOnUse">
<stop stop-color="#EEA054"/>
<stop offset="0.502762" stop-color="#D64763"/>
<stop offset="1" stop-color="#B62A99"/>
</linearGradient>
</defs>
</svg>
